X: 29
M: 2/4
L: 1/8
K: D
[|\
d2 (Ad) | e2 A2 | (fe) (fg) | f2 ez |
d2 (cB) | (cd) (ef) | c2 B2 | A4 | a2 (gf) |
g2 f2 | (ef) (de) | c2 Az | (dc) (de) | d2 e2 |
(fe) (fg) f3 z | (gf) (ed) | c2 (de) | f2 e2 | d4 |]

